X:14
T:The Lakes of Sligo                                                            
M:2/4                                                                           
L:1/8                                                                           
K:D                                                                             
|:A|FA AB/c/|d2 dc|B>A B/c/d|e2 ef|\                                            
FA AB/c/|de f>e|dB Af|ef/e/ d3 :|                                               
|:e|fa d>e|fa ag/f/|gb ef|gb ba|\                                               
fa ef/e/|de f>e|dB Af|ef/e/ d3 :|
